!!!!SEGMENT: pl-wtm--r-730-12-m_moniuszko-stanislaw--on-m-a-conte-qu-en-helvetie.krn
!!!cenid: 18xx:1692
!!!COM: Moniuszko, Stanisław
!!!COM-rismid: pe30008351
!!!CDT: 1819/05/05-1872/06/04
!!!CNT: Polish
!!!OTL: On m'a conté qu'en Helvétie
!!!PDT:
!!!AGN: Secular
!!!SMS-siglum: PL-Wtm
!!!SMS-shelfmark: R 730/12/M
!!!SMS-shelfwork: W
!!!SMS-variant:
!!!SMS-altvar:
!!!NIFC-rismid: 1001099794
!!!URL-scan: http://repozytorium.nifc.pl/skany/pl-wtm-nut--r730m-1-43
!!!ONB-nifc: Skan 0019. No. 764
**kern	**kern	**dynam	**kern	**text
*part2	*part2	*part2	*part1	*part1
*staff3	*staff2	*	*staff1	*staff1
*I"[Fortepian]	*	*	*I"[Głos]	*
*I'pf	*	*	*I'V	*
*clefF4	*clefG2	*	*clefG2	*
*k[]	*k[]	*	*k[]	*
*C:	*C:	*	*C:	*
*M4/4	*M4/4	*	*M4/4	*
*met(c)	*met(c)	*	*met(c)	*
*>[A,B,B]	*>[A,B,B]	*	*>[A,B,B]	*
=1	=1	=1	=1	=1
*>A	*>A	*	*>A	*
4GG\ 4G	4g\ 4gg	f	2r	.
4r	4r	.	.	.
2r	2r	.	8r	.
.	.	.	8e/	On
.	.	.	8g/	m`a
!LO:TX:t=[segno]	!LO:TX:t=[segno]	!	!LO:TX:t=[segno]	!
.	.	.	8cc/	con-
=2!|:	=2!|:	=2!|:	=2!|:	=2!|:
*	*	*	*^	*
*>B	*>B	*	*>B	*>B	*
*	*	*	*2\right	*	*
!	!	!LO:DY:t=p.	!	!	!
1C 1G	8c/L 8e	p	[2ee\	2ryy	-tè
.	8G/	.	.	.	.
.	8c/ 8e	.	.	.	.
.	8G/J	.	.	.	.
.	8B/L 8d 8f	.	8ee\L]	8ryy	qu`-
.	8G/	.	8dd\J	8dd/	-en
.	8B/ 8d 8f	.	8cc#X\	4ryy	Hel-
.	8G/J	.	8dd\	.	-ve-
*	*	*	*v	*v	*
=3	=3	=3	=3	=3
*2\right	*	*	*	*
2C\ 2G	8c/L 8e	.	4dd\	-ti-
.	8G/	.	.	.
.	8E</ 8c 8e	.	4cc\	-e,
.	8G/J	.	.	.
4CC/ 4C	8r	.	8r	.
.	8cc\L 8ccc	.	8cc\	Lou-
4r	8cc\ 8ccc	.	8cc\	-i-
.	8cc\J 8ccc	.	8cc\	-se,
=4	=4	=4	=4	=4
!LO:TX:t=P:problem:mixed beam	!	!LO:DY:b=2:t=sf.	!	!
8CC/L	2e-X/ 2cc	sf	4.ee-X\	une
8F#X\ 8A	.	.	.	.
8F#\ 8A	.	.	.	.
8F#\J 8A	.	.	8ee-\	fle-
8F#\ 8A	8r	.	8dd\L	-ur
8r	8cc\L 8ccc	.	8cc\J	.
4r	8b\ 8bb	.	8b\	à
.	8cc\J 8ccc	.	8cc\	la
=5	=5	=5	=5	=5
!LO:TX:t=P:problem:mixed beam	!	!LO:DY:b=2:t=sf.	!	!
8CC/L	2en/ 2cc	sf	4g/	main,
8G\	.	.	.	.
8G\	.	.	4r	.
8G\J	.	.	.	.
8G\	2r	.	8r	.
8r	.	.	8e/	A-
4r	.	.	8g/	-vec
.	.	.	8cc/	Lis-
=6	=6	=6	=6	=6
!	!	!LO:DY:t=p.	!	!
8C\L	8r	p	4.ee\	-beth
8G\	8c/ 8e	.	.	.
8C\	8r	.	.	.
8G#X\J	8c/ 8e	.	8ee\	sa
8C\L	8r	.	8dd\L	dou-
8A\	8c/ 8f	.	8cc\J	.
8C\	8r	.	8b\	-ce
8A-X\J	8c/ 8f	.	8a-X/	a-
!!LO:LB:g=original
=7	=7	=7	=7	=7
8C/	8r	.	4g/	-mi-
*tremolo	*tremolo	*	*	*
8G\L	8c/L 8e	.	.	.
8G\	8c/ 8e	.	4cc\	-e
8G\J	8c/J 8e	.	.	.
*Xtremolo	*Xtremolo	*	*	*
4AA/	8r	.	8r	.
*	*tremolo	*	*	*
.	8c/L 8e 8a	.	8cc\	un
4r	8c/ 8e 8a	.	8dd\	ǰo-
.	8c/J 8e 8a	.	8cc\	-ur
*	*Xtremolo	*	*	*
=8	=8	=8	=8	=8
8BB/	8r	.	8b\	S'é-
8r	8B/ 8e 8g	.	8b\	-tait
4r	8b\ 8bb	.	[4ee\	mi-
.	8B/ 8e 8g	.	.	.
8BB/	8r	.	8ee\]	.
8r	8B/ 8d 8f#X	.	8g/	-se
!	!	!	!LO:TUP:a:problem:klamra łukowa	!
4r	8b\ 8bb	.	12b/L	en
.	.	.	12a/J	.
.	8B/ 8d 8f#	.	.	.
.	.	.	12f#X/	che-
=9	=9	=9	=9	=9
!	!LO:TUP:a:problem:klamra łukowa	!	!	!
8E\	12B/ 12e 12g	.	4e/	-min:
.	12r	.	.	.
8r	.	.	.	.
.	12b/	.	.	.
*8va	*	*	*	*
!	!LO:TUP:a:problem:klamra łukowa	!	!	!
8g\L	12bb\L	.	4r	.
.	12ff#X\	.	.	.
8f#X\	.	.	.	.
.	12gg\J	.	.	.
8g\J	8ee\	.	8r	.
*X8va	*	*	*	*
8E\	8r	.	8b\	,,Bon
!	!LO:TX:b:t=loco.	!	!	!
4r	4r	.	8b\	é-
.	.	.	8b\	-re-
=10	=10	=10	=10	=10
(2B\ 2d	(>2f#X/ 2b	.	4.b\	-mǐte
.	.	.	8b\	aſ-
2E\ 2B 2e	2g/ 2b	.	8cc\	-sǐs
.	.	.	8b\	sur
.	.	.	8a#X\	la
.	.	.	8b\	pier-
=11	=11	=11	=11	=11
2AA\ 2E 2A	2a/ 2cc	.	(4.ee\	-re,
.	.	.	16dd\LL	.
.	.	.	16cc\JJ)	.
2E\) 2B	2g#X/ 2b	.	4b,\	.
.	.	.	8b\	di-
.	.	.	8b\	-saǐt
=12	=12	=12	=12	=12
(2B\ 2d#X	(>2f#X/) 2b	.	8b/	el-
!	!	!	!LO:SIC:v:s=8f#	!
.	.	.	8f/	-les,
.	.	.	4r	.
2E\) 2B 2e	2g/) 2b	.	8r	.
.	.	.	8b/	dans
.	.	.	8a#X/	ta
.	.	.	8b/	pri-
=13	=13	=13	=13	=13
4GG\ 4D 4G	4g\ 4b 4dd 4gg	.	8ff\L	-èr-
.	.	.	8ee\J	.
4r;	4r;	.	4gg;\	.
.	.	.	8qqff\L	.
.	.	.	8qqdd\	.
.	.	.	8qqb\J	.
8r	8r	.	8g;/	-e
8r	8r	.	8e/	ſo-
4r	4r	.	8g/	-u-
.	.	.	8cc/	-vǐens
!!LO:LB:g=original
=14	=14	=14	=14	=14
!	!	!LO:DY:t=p.	!	!
8C/	16ee\LL	p	4.ee\	toi!
.	16ee\	.	.	.
*tremolo	*	*	*	*
8G\L 8c 8e	16ee\	.	.	.
.	16ff\JJ	.	.	.
8G\ 8c 8e	16ff#X\LL	.	.	.
.	16ff#\	.	.	.
8G\J 8c 8e	16ff#\	.	8ee\	so-
*Xtremolo	*	*	*	*
.	16gg\JJ	.	.	.
8BB/	16aa\LL	.	8ee#X\	-u-
.	16aa\	.	.	.
*tremolo	*	*	*	*
8F#X\L 8B 8d#X	16aa\	.	8ff\	-viens
.	16aa#X\JJ	.	.	.
8F#\ 8B 8d#	16bb\LL	.	8dd#X\	toi
.	16bb\	.	.	.
8F#\J 8B 8d#	16bb\	.	8b\	de
*Xtremolo	*	*	*	*
.	16aan\JJ	.	.	.
=15	=15	=15	=15	=15
8E\	16gg\LL	.	(2gg\	moi,
.	16gg\	.	.	.
*tremolo	*	*	*	*
8G\L 8B 8e	16gg\	.	.	.
.	16ff#X\JJ	.	.	.
8G\ 8B 8e	16aa\LL	.	.	.
.	16aa\	.	.	.
8G\J 8B 8e	16aa\	.	.	.
*Xtremolo	*	*	*	*
.	16gg\JJ	.	.	.
8F\	16ffn\LL	.	8a/)	.
.	16ff\	.	.	.
*tremolo	*	*	*	*
8A\L 8d	16ff\	.	8ff\	dans
.	16ee\JJ	.	.	.
8A\ 8d	16gg\LL	.	8ee\	ta
.	16gg\	.	.	.
8A\J 8d	16gg\	.	8dd\	piè-
*Xtremolo	*	*	*	*
.	16ff\JJ	.	.	.
=16	=16	=16	=16	=16
*	*	*	*^	*
!LO:TX:t=P:problem:mixed beam	!	!	!	!	!
8GG\L	16ee\LL	.	8cc\	2.ryy	-re
.	16ee\J	.	.	.	.
8E\J 8G 8c	8ee\J	.	8r	.	.
((>4F#X\ 4c	(4a/ 4dd#X	.	4f#X/	.	sou-
8G\))	8g/) 8cc 8ee	.	8a/L	.	.
8r	8r	.	8g/J	.	.
4GG/ 4G	(4f/ 4b 4dd#	.	8ee\L	8ee/	-viens
.	.	.	8dd\J	8dd/	de
*	*	*	*v	*v	*
=17	=17	=17	=17	=17
8C/ 8G	8e/) 8cc	.	4cc\	moi,
!	!	!LO:DY:t=pp.	!	!
(8e\L	(8g/L 8cc 8gg	pp	.	.
8d#X\	8a/ 8cc 8ff#X	.	4r	.
8dn\J	8g/J 8b 8ffn	.	.	.
!LO:TX:t=P:problem:mixed beam	!	!	!	!
8c\L	8g/L 8cc 8ee	.	8r	.
8F#X\	8a/ 8cc 8dd#X	.	8dd#X\	sou-
8G\	8g/ 8cc 8ee	.	8.ee\	-viens
8GG/J)	8f/J) 8b	.	.	.
.	.	.	16ddn\	.
=18	=18	=18	=18	=18
8CC/ 8C	8e/ 8cc	.	2cc\	toi,
*clefG2	*	*	*	*
!	!	!LO:DY:t=ppp.	!	!
(8g/L	(8ee\L 8gg 8ccc	ppp	.	.
8f#X/	8dd\ 8aa 8ccc	.	.	.
8fn/J	8dd\J 8gg 8bb	.	.	.
8e/L	8cc\L 8gg 8ccc	.	8r	.
8d#X/	8cc\ 8ff#X 8aa	.	8a/	sou-
8e/	8cc\ 8ee 8gg	.	8g/	-viens
8G/J) 8dn	8b\J) 8ff# 8gg	.	8g/	de
*clefF4	*	*	*	*
=19	=19	=19	=19	=19
4C\ 4c	4cc\ 4ee	.	4c/	moi."
*tremolo	*tremolo	*	*	*
!	!LO:TUP:a:problem:klamra łukowa, numer	!LO:DY:t=pp.	!	!
!LO:N:vis=4.	!LO:N:vis=4.	!	!	!
12e\L	12g#X/L 12b 12ee	pp	4r	.
12e\	12g#/ 12b 12ee	.	.	.
12e\J	12g#/J 12b 12ee	.	.	.
*Xtremolo	*Xtremolo	*	*	*
8B\	8b\ 8dd#X 8ff#X	.	2r	.
8r	8r	.	.	.
*tremolo	*tremolo	*	*	*
!	!LO:TUP:a:problem:klamra łukowa, numer	!LO:DY:t=ff.	!	!
!LO:N:vis=4.	!LO:N:vis=4.	!	!	!
12GG/L 12G	12b\L 12ff# 12gg	ff	.	.
12GG/ 12G	12b\ 12ff# 12gg	.	.	.
12GG/J 12G	12b\J 12ff# 12gg	.	.	.
*Xtremolo	*Xtremolo	*	*	*
=20	=20	=20	=20	=20
4CC/ 4GG 4C	4cc\ 4ee 4aa 4ccc	.	2r	.
4r	4r	.	.	.
!	!LO:TX:b:i:t=D[al]&colon;ſ[egno]&colon;	!	!	!
2r	2r	.	8r	.
.	.	.	8e/	Ad-
.	.	.	8g/	-vint
!LO:TX:t=[segno]	!LO:TX:t=[segno]	!	!LO:TX:t=[segno]	!
.	.	.	8cc/	qu`en....
!!LO:PB:g=original
=:|!	=:|!	=:|!	=:|!	=:|!
*-	*-	*-	*-	*-
!!!system-decoration: s1[(s2,s3)]
!!!RDF**kern: < = below
!!!RDF**kern: > = above
!!!ENC: Marta Chmielewska
!!!END: 2021-04-19
!!!ENC: Tomasz Grochalski
!!!END: 2021-03-30
